svg/color/dogy.svg

<?xml version="1.0" encoding="UTF-8" ?>
<!DOCTYPE svg PUBLIC "-//W3C//DTD SVG 1.1//EN" "http://www.w3.org/Graphics/SVG/1.1/DTD/svg11.dtd">
<svg width="250pt" height="250pt" viewBox="0 0 250 250" version="1.1" xmlns="http://www.w3.org/2000/svg">
<g id="#ffffffff">
<path fill="#ffffff" opacity="1.00" d=" M 0.00 0.00 L 119.61 0.00 C 102.98 1.34 86.33 4.87 71.29 12.27 C 44.91 24.66 23.60 46.79 11.11 73.01 C 14.68 69.21 17.58 64.86 20.79 60.77 C 41.58 35.74 71.98 19.11 104.14 14.50 C 114.00 12.97 124.03 13.21 133.97 13.41 C 168.32 15.06 201.64 30.81 225.03 55.97 C 230.25 61.20 233.83 67.77 238.81 73.20 C 226.55 46.54 204.68 24.31 178.04 11.92 C 163.22 4.63 146.78 1.34 130.41 0.00 L 250.00 0.00 L 250.00 118.61 C 248.84 108.37 248.00 97.77 243.87 88.23 C 243.79 93.16 244.54 98.07 244.58 103.00 C 245.43 133.27 235.01 163.20 217.93 187.96 C 198.93 214.98 171.68 236.88 139.94 246.79 C 136.91 247.62 133.97 248.74 131.09 250.00 L 119.03 250.00 C 116.10 248.76 113.13 247.64 110.08 246.77 C 79.27 237.09 52.58 216.23 33.73 190.23 C 12.05 160.13 0.58 121.58 7.22 84.62 C 2.37 94.90 1.63 106.51 0.00 117.61 L 0.00 0.00 M 60.95 44.03 C 65.68 45.21 69.29 48.57 72.06 52.44 C 86.91 41.97 104.77 35.59 123.01 35.37 C 143.46 34.78 163.94 41.66 180.09 54.18 C 183.08 50.50 186.94 47.62 191.37 45.88 C 176.64 33.30 158.17 25.26 139.01 22.60 C 130.02 21.98 120.97 22.04 111.98 22.51 C 93.43 24.80 75.48 32.26 60.95 44.03 M 200.09 40.87 C 202.55 43.74 205.35 46.29 207.88 49.11 C 222.58 65.70 232.99 86.03 238.05 107.61 C 238.85 111.51 239.35 115.48 240.55 119.30 C 240.84 117.21 241.16 115.12 241.22 113.02 C 240.78 101.61 240.42 89.89 235.97 79.18 C 231.82 68.03 223.72 58.83 214.64 51.36 C 209.99 47.60 205.38 43.71 200.09 40.87 M 43.14 46.16 C 32.56 54.10 22.05 62.96 15.91 74.94 C 8.15 89.65 7.71 106.91 9.06 123.12 C 9.95 118.55 10.58 113.94 11.52 109.38 C 15.94 89.46 25.00 70.60 37.73 54.66 C 41.09 50.44 45.13 46.84 48.77 42.86 C 46.83 43.84 44.90 44.86 43.14 46.16 M 49.12 49.09 C 44.64 52.49 43.26 58.85 45.01 64.04 C 46.74 69.00 51.72 72.81 57.05 72.65 C 61.00 72.19 63.43 75.65 65.93 78.07 C 83.21 95.45 100.53 112.79 117.91 130.08 C 119.18 131.40 120.56 132.93 120.31 134.92 C 120.36 156.63 120.26 178.35 120.33 200.06 C 120.88 205.00 114.83 207.17 114.48 211.94 C 113.02 218.30 116.65 225.09 122.73 227.40 C 128.55 230.22 135.65 227.17 139.01 222.01 C 141.07 218.90 141.09 214.93 140.51 211.37 C 139.80 207.88 136.71 205.69 134.86 202.84 C 134.37 199.92 134.67 196.94 134.62 193.99 C 134.64 175.66 134.65 157.33 134.60 139.00 C 134.70 136.09 133.91 132.59 136.55 130.53 C 153.05 114.03 169.54 97.53 186.01 81.01 C 187.84 79.22 189.51 77.25 191.57 75.72 C 195.60 75.30 200.16 75.44 203.20 72.27 C 210.30 66.71 209.05 54.14 200.84 50.24 C 193.70 45.95 183.71 50.50 181.57 58.34 C 181.22 60.51 181.36 62.74 181.08 64.92 C 179.65 67.73 177.00 69.63 174.88 71.88 C 162.04 84.71 149.25 97.59 136.42 110.42 C 133.43 113.44 130.50 116.54 127.23 119.28 C 108.95 100.74 90.40 82.47 72.07 63.99 C 70.17 60.14 71.64 54.94 68.48 51.48 C 64.20 45.45 54.71 44.23 49.12 49.09 M 81.32 60.84 C 81.48 63.98 80.81 67.31 81.75 70.34 C 84.06 73.31 87.02 75.68 89.61 78.39 C 94.19 82.77 98.30 87.65 103.31 91.56 C 103.44 89.20 103.47 86.84 103.50 84.48 C 115.12 83.43 126.95 83.28 138.41 85.81 C 143.09 86.87 147.29 89.31 151.21 91.99 C 157.05 86.92 162.25 81.17 167.76 75.76 C 162.27 70.43 155.63 66.15 148.25 63.98 C 140.08 61.52 131.49 60.87 123.00 60.66 C 109.11 60.76 95.20 60.09 81.32 60.84 M 23.10 143.00 C 26.92 165.66 38.80 186.80 55.90 202.11 C 72.74 217.47 94.85 226.54 117.49 228.48 C 114.23 224.18 111.52 219.36 111.24 213.85 C 86.53 210.36 63.94 195.54 50.18 174.83 C 40.48 160.19 34.92 142.61 35.28 125.00 C 35.07 106.94 40.90 89.00 51.01 74.09 C 46.93 71.60 44.07 67.75 41.99 63.51 C 25.09 85.87 18.03 115.44 23.10 143.00 M 210.25 66.80 C 208.19 71.06 204.93 74.57 200.86 76.99 C 210.22 91.82 215.24 109.45 214.71 127.00 C 214.67 146.82 208.38 167.10 195.11 182.09 C 181.85 197.54 163.09 207.33 143.65 212.56 C 144.25 218.18 141.64 223.23 138.45 227.64 C 171.01 223.76 200.85 203.00 216.15 174.05 C 224.95 157.91 229.09 139.33 228.48 120.99 C 227.40 101.75 221.59 82.51 210.25 66.80 M 162.28 108.33 C 162.78 113.05 164.67 117.53 164.89 122.31 C 166.39 137.82 160.50 155.38 146.36 163.39 C 143.45 165.44 139.15 165.32 136.90 168.17 C 136.49 175.72 136.57 183.33 136.97 190.89 C 147.78 190.05 157.90 184.94 166.14 178.09 C 177.21 168.86 183.76 155.09 185.99 141.03 C 187.01 133.59 188.07 126.02 186.83 118.54 C 185.99 109.04 183.90 99.49 179.16 91.13 C 173.54 96.85 167.42 102.18 162.28 108.33 M 81.31 96.90 C 81.22 102.66 81.35 108.42 81.16 114.17 C 76.86 114.31 72.57 114.30 68.28 114.27 C 68.33 122.38 68.28 130.49 68.32 138.60 C 72.60 138.55 76.89 138.54 81.18 138.66 C 81.30 156.28 81.17 173.89 81.25 191.51 C 93.35 193.24 105.55 191.93 117.69 191.61 C 117.75 183.89 117.73 176.16 117.71 168.44 C 112.91 168.47 108.10 168.45 103.37 167.65 C 103.44 159.43 103.48 151.20 103.43 142.97 C 103.70 141.60 102.88 139.67 104.17 138.71 C 108.29 138.35 112.44 138.63 116.58 138.58 C 116.33 135.76 117.25 132.32 114.80 130.22 C 103.63 119.12 92.64 107.84 81.31 96.90 M 77.95 229.00 C 94.46 238.65 113.47 246.77 133.02 244.13 C 146.93 242.00 160.10 236.22 172.09 229.02 C 166.54 230.09 161.30 232.31 155.76 233.44 C 135.69 237.69 114.68 237.84 94.63 233.40 C 89.00 232.19 83.60 230.09 77.95 229.00 Z" />
<path fill="#ffffff" opacity="1.00" d=" M 216.74 209.70 C 236.74 188.64 248.13 160.25 250.00 131.40 L 250.00 250.00 L 140.55 250.00 L 139.49 249.58 C 146.33 248.04 153.29 247.03 160.01 245.00 C 181.63 238.60 201.57 226.43 216.74 209.70 Z" />
<path fill="#ffffff" opacity="1.00" d=" M 0.00 132.37 C 1.78 151.56 6.79 170.66 16.66 187.34 C 33.51 216.64 62.62 238.75 95.59 246.47 C 100.54 247.58 105.53 248.45 110.48 249.59 L 109.41 250.00 L 0.00 250.00 L 0.00 132.37 Z" />
</g>
<g id="#e3af2cff">
<path fill="#e3af2c" opacity="1.00" d=" M 119.61 0.00 L 130.41 0.00 C 146.78 1.34 163.22 4.63 178.04 11.92 C 204.68 24.31 226.55 46.54 238.81 73.20 C 233.83 67.77 230.25 61.20 225.03 55.97 C 201.64 30.81 168.32 15.06 133.97 13.41 C 124.03 13.21 114.00 12.97 104.14 14.50 C 71.98 19.11 41.58 35.74 20.79 60.77 C 17.58 64.86 14.68 69.21 11.11 73.01 C 23.60 46.79 44.91 24.66 71.29 12.27 C 86.33 4.87 102.98 1.34 119.61 0.00 Z" />
<path fill="#e3af2c" opacity="1.00" d=" M 0.00 117.61 C 1.63 106.51 2.37 94.90 7.22 84.62 C 0.58 121.58 12.05 160.13 33.73 190.23 C 52.58 216.23 79.27 237.09 110.08 246.77 C 111.09 247.34 112.09 247.96 113.09 248.57 C 112.44 248.83 111.13 249.33 110.48 249.59 C 105.53 248.45 100.54 247.58 95.59 246.47 C 62.62 238.75 33.51 216.64 16.66 187.34 C 6.79 170.66 1.78 151.56 0.00 132.37 L 0.00 117.61 Z" />
<path fill="#e3af2c" opacity="1.00" d=" M 243.87 88.23 C 248.00 97.77 248.84 108.37 250.00 118.61 L 250.00 131.40 C 248.13 160.25 236.74 188.64 216.74 209.70 C 201.57 226.43 181.63 238.60 160.01 245.00 C 153.29 247.03 146.33 248.04 139.49 249.58 C 138.85 249.32 137.56 248.80 136.92 248.54 C 137.92 247.95 138.92 247.34 139.94 246.79 C 171.68 236.88 198.93 214.98 217.93 187.96 C 235.01 163.20 245.43 133.27 244.58 103.00 C 244.54 98.07 243.79 93.16 243.87 88.23 Z" />
</g>
<g id="#c89204ff">
<path fill="#c89204" opacity="1.00" d=" M 60.95 44.03 C 75.48 32.26 93.43 24.80 111.98 22.51 C 120.97 22.04 130.02 21.98 139.01 22.60 C 158.17 25.26 176.64 33.30 191.37 45.88 C 186.94 47.62 183.08 50.50 180.09 54.18 C 163.94 41.66 143.46 34.78 123.01 35.37 C 104.77 35.59 86.91 41.97 72.06 52.44 C 69.29 48.57 65.68 45.21 60.95 44.03 Z" />
<path fill="#c89204" opacity="1.00" d=" M 49.12 49.09 C 54.71 44.23 64.20 45.45 68.48 51.48 C 71.64 54.94 70.17 60.14 72.07 63.99 C 90.40 82.47 108.95 100.74 127.23 119.28 C 130.50 116.54 133.43 113.44 136.42 110.42 C 149.25 97.59 162.04 84.71 174.88 71.88 C 177.00 69.63 179.65 67.73 181.08 64.92 C 181.36 62.74 181.22 60.51 181.57 58.34 C 183.71 50.50 193.70 45.95 200.84 50.24 C 209.05 54.14 210.30 66.71 203.20 72.27 C 200.16 75.44 195.60 75.30 191.57 75.72 C 189.51 77.25 187.84 79.22 186.01 81.01 C 169.54 97.53 153.05 114.03 136.55 130.53 C 133.91 132.59 134.70 136.09 134.60 139.00 C 134.65 157.33 134.64 175.66 134.62 193.99 C 134.67 196.94 134.37 199.92 134.86 202.84 C 136.71 205.69 139.80 207.88 140.51 211.37 C 141.09 214.93 141.07 218.90 139.01 222.01 C 135.65 227.17 128.55 230.22 122.73 227.40 C 116.65 225.09 113.02 218.30 114.48 211.94 C 114.83 207.17 120.88 205.00 120.33 200.06 C 120.26 178.35 120.36 156.63 120.31 134.92 C 120.56 132.93 119.18 131.40 117.91 130.08 C 100.53 112.79 83.21 95.45 65.93 78.07 C 63.43 75.65 61.00 72.19 57.05 72.65 C 51.72 72.81 46.74 69.00 45.01 64.04 C 43.26 58.85 44.64 52.49 49.12 49.09 Z" />
<path fill="#c89204" opacity="1.00" d=" M 23.10 143.00 C 18.03 115.44 25.09 85.87 41.99 63.51 C 44.07 67.75 46.93 71.60 51.01 74.09 C 40.90 89.00 35.07 106.94 35.28 125.00 C 34.92 142.61 40.48 160.19 50.18 174.83 C 63.94 195.54 86.53 210.36 111.24 213.85 C 111.52 219.36 114.23 224.18 117.49 228.48 C 94.85 226.54 72.74 217.47 55.90 202.11 C 38.80 186.80 26.92 165.66 23.10 143.00 Z" />
<path fill="#c89204" opacity="1.00" d=" M 210.25 66.80 C 221.59 82.51 227.40 101.75 228.48 120.99 C 229.09 139.33 224.95 157.91 216.15 174.05 C 200.85 203.00 171.01 223.76 138.45 227.64 C 141.64 223.23 144.25 218.18 143.65 212.56 C 163.09 207.33 181.85 197.54 195.11 182.09 C 208.38 167.10 214.67 146.82 214.71 127.00 C 215.24 109.45 210.22 91.82 200.86 76.99 C 204.93 74.57 208.19 71.06 210.25 66.80 Z" />
</g>
<g id="#e4b02dff">
<path fill="#e4b02d" opacity="1.00" d=" M 200.09 40.87 C 205.38 43.71 209.99 47.60 214.64 51.36 C 223.72 58.83 231.82 68.03 235.97 79.18 C 240.42 89.89 240.78 101.61 241.22 113.02 C 241.16 115.12 240.84 117.21 240.55 119.30 C 239.35 115.48 238.85 111.51 238.05 107.61 C 232.99 86.03 222.58 65.70 207.88 49.11 C 205.35 46.29 202.55 43.74 200.09 40.87 Z" />
</g>
<g id="#e4b02eff">
<path fill="#e4b02e" opacity="1.00" d=" M 43.14 46.16 C 44.90 44.86 46.83 43.84 48.77 42.86 C 45.13 46.84 41.09 50.44 37.73 54.66 C 25.00 70.60 15.94 89.46 11.52 109.38 C 10.58 113.94 9.95 118.55 9.06 123.12 C 7.71 106.91 8.15 89.65 15.91 74.94 C 22.05 62.96 32.56 54.10 43.14 46.16 Z" />
</g>
<g id="#f0bf0eff">
<path fill="#f0bf0e" opacity="1.00" d=" M 81.32 60.84 C 95.20 60.09 109.11 60.76 123.00 60.66 C 131.49 60.87 140.08 61.52 148.25 63.98 C 155.63 66.15 162.27 70.43 167.76 75.76 C 162.25 81.17 157.05 86.92 151.21 91.99 C 147.29 89.31 143.09 86.87 138.41 85.81 C 126.95 83.28 115.12 83.43 103.50 84.48 C 103.47 86.84 103.44 89.20 103.31 91.56 C 98.30 87.65 94.19 82.77 89.61 78.39 C 87.02 75.68 84.06 73.31 81.75 70.34 C 80.81 67.31 81.48 63.98 81.32 60.84 Z" />
<path fill="#f0bf0e" opacity="1.00" d=" M 162.28 108.33 C 167.42 102.18 173.54 96.85 179.16 91.13 C 183.90 99.49 185.99 109.04 186.83 118.54 C 188.07 126.02 187.01 133.59 185.99 141.03 C 183.76 155.09 177.21 168.86 166.14 178.09 C 157.90 184.94 147.78 190.05 136.97 190.89 C 136.57 183.33 136.49 175.72 136.90 168.17 C 139.15 165.32 143.45 165.44 146.36 163.39 C 160.50 155.38 166.39 137.82 164.89 122.31 C 164.67 117.53 162.78 113.05 162.28 108.33 Z" />
<path fill="#f0bf0e" opacity="1.00" d=" M 81.31 96.90 C 92.64 107.84 103.63 119.12 114.80 130.22 C 117.25 132.32 116.33 135.76 116.58 138.58 C 112.44 138.63 108.29 138.35 104.17 138.71 C 102.88 139.67 103.70 141.60 103.43 142.97 C 103.48 151.20 103.44 159.43 103.37 167.65 C 108.10 168.45 112.91 168.47 117.71 168.44 C 117.73 176.16 117.75 183.89 117.69 191.61 C 105.55 191.93 93.35 193.24 81.25 191.51 C 81.17 173.89 81.30 156.28 81.18 138.66 C 76.89 138.54 72.60 138.55 68.32 138.60 C 68.28 130.49 68.33 122.38 68.28 114.27 C 72.57 114.30 76.86 114.31 81.16 114.17 C 81.35 108.42 81.22 102.66 81.31 96.90 Z" />
</g>
<g id="#e3b02dff">
<path fill="#e3b02d" opacity="1.00" d=" M 77.95 229.00 C 83.60 230.09 89.00 232.19 94.63 233.40 C 114.68 237.84 135.69 237.69 155.76 233.44 C 161.30 232.31 166.54 230.09 172.09 229.02 C 160.10 236.22 146.93 242.00 133.02 244.13 C 113.47 246.77 94.46 238.65 77.95 229.00 Z" />
</g>
<g id="#eed187ff">
<path fill="#eed187" opacity="1.00" d=" M 110.08 246.77 C 113.13 247.64 116.10 248.76 119.03 250.00 L 109.41 250.00 L 110.48 249.59 C 111.13 249.33 112.44 248.83 113.09 248.57 C 112.09 247.96 111.09 247.34 110.08 246.77 Z" />
<path fill="#eed187" opacity="1.00" d=" M 131.09 250.00 C 133.97 248.74 136.91 247.62 139.94 246.79 C 138.92 247.34 137.92 247.95 136.92 248.54 C 137.56 248.80 138.85 249.32 139.49 249.58 L 140.55 250.00 L 131.09 250.00 Z" />
</g>
</svg>

<?xml version="1.0" encoding="utf-8"?>
<!-- Generator: Adobe Illustrator 26.0.3, SVG Export Plug-In . SVG Version: 6.00 Build 0)  -->
<svg version="1.1" id="Layer_1" xmlns="http://www.w3.org/2000/svg" xmlns:xlink="http://www.w3.org/1999/xlink" x="0px" y="0px"
	 viewBox="0 0 250 250" style="enable-background:new 0 0 250 250;" xml:space="preserve">
<style type="text/css">
	.st0{fill:#E3AF2C;}
	.st1{fill:#C89204;}
	.st2{fill:#E4B02D;}
	.st3{fill:#E4B02E;}
	.st4{fill:#F0BF0E;}
	.st5{fill:#E3B02D;}
	.st6{fill:#EED187;}
</style>
<g id="_x23_e3af2cff">
	<path class="st0" d="M119.6,0h10.8c16.4,1.3,32.8,4.6,47.6,11.9c26.6,12.4,48.5,34.6,60.8,61.3c-5-5.4-8.6-12-13.8-17.2
		c-23.4-25.2-56.7-40.9-91.1-42.6c-9.9-0.2-20-0.4-29.8,1.1C72,19.1,41.6,35.7,20.8,60.8c-3.2,4.1-6.1,8.4-9.7,12.2
		c12.5-26.2,33.8-48.4,60.2-60.7C86.3,4.9,103,1.3,119.6,0z"/>
	<path class="st0" d="M0,117.6c1.6-11.1,2.4-22.7,7.2-33c-6.6,37,4.8,75.5,26.5,105.6c18.9,26,45.5,46.9,76.4,56.5
		c1,0.6,2,1.2,3,1.8c-0.6,0.3-2,0.8-2.6,1c-5-1.1-9.9-2-14.9-3.1c-33-7.7-62.1-29.8-78.9-59.1c-9.9-16.7-14.9-35.8-16.7-55V117.6z"
		/>
	<path class="st0" d="M243.9,88.2c4.1,9.5,5,20.1,6.1,30.4v12.8c-1.9,28.9-13.3,57.2-33.3,78.3c-15.2,16.7-35.1,28.9-56.7,35.3
		c-6.7,2-13.7,3-20.5,4.6c-0.6-0.3-1.9-0.8-2.6-1c1-0.6,2-1.2,3-1.8c31.7-9.9,59-31.8,78-58.8c17.1-24.8,27.5-54.7,26.7-85
		C244.5,98.1,243.8,93.2,243.9,88.2z"/>
</g>
<g id="_x23_c89204ff">
	<path class="st1" d="M61,44c14.5-11.8,32.5-19.2,51-21.5c9-0.5,18-0.5,27,0.1c19.2,2.7,37.6,10.7,52.4,23.3
		c-4.4,1.7-8.3,4.6-11.3,8.3c-16.1-12.5-36.6-19.4-57.1-18.8c-18.2,0.2-36.1,6.6-51,17.1C69.3,48.6,65.7,45.2,61,44z"/>
	<path class="st1" d="M49.1,49.1c5.6-4.9,15.1-3.6,19.4,2.4c3.2,3.5,1.7,8.7,3.6,12.5c18.3,18.5,36.9,36.7,55.2,55.3
		c3.3-2.7,6.2-5.8,9.2-8.9c12.8-12.8,25.6-25.7,38.5-38.5c2.1-2.2,4.8-4.1,6.2-7c0.3-2.2,0.1-4.4,0.5-6.6
		c2.1-7.8,12.1-12.4,19.3-8.1c8.2,3.9,9.5,16.5,2.4,22c-3,3.2-7.6,3-11.6,3.5c-2.1,1.5-3.7,3.5-5.6,5.3c-16.5,16.5-33,33-49.5,49.5
		c-2.6,2.1-1.9,5.6-1.9,8.5c0,18.3,0,36.7,0,55c0.1,2.9-0.2,5.9,0.2,8.8c1.9,2.9,4.9,5,5.6,8.5c0.6,3.6,0.6,7.5-1.5,10.6
		c-3.4,5.2-10.5,8.2-16.3,5.4c-6.1-2.3-9.7-9.1-8.2-15.5c0.3-4.8,6.4-6.9,5.8-11.9c-0.1-21.7,0-43.4,0-65.1c0.2-2-1.1-3.5-2.4-4.8
		c-17.4-17.3-34.7-34.6-52-52c-2.5-2.4-4.9-5.9-8.9-5.4C51.7,72.8,46.7,69,45,64C43.3,58.8,44.6,52.5,49.1,49.1z"/>
	<path class="st1" d="M23.1,143c-5.1-27.6,2-57.1,18.9-79.5c2.1,4.2,4.9,8.1,9,10.6C40.9,89,35.1,106.9,35.3,125
		c-0.4,17.6,5.2,35.2,14.9,49.8c13.8,20.7,36.3,35.5,61.1,39c0.3,5.5,3,10.3,6.2,14.6c-22.6-1.9-44.8-11-61.6-26.4
		C38.8,186.8,26.9,165.7,23.1,143z"/>
	<path class="st1" d="M210.2,66.8c11.3,15.7,17.1,34.9,18.2,54.2c0.6,18.3-3.5,36.9-12.3,53.1c-15.3,28.9-45.1,49.7-77.7,53.6
		c3.2-4.4,5.8-9.5,5.2-15.1c19.4-5.2,38.2-15,51.5-30.5c13.3-15,19.6-35.3,19.6-55.1c0.5-17.6-4.5-35.2-13.9-50
		C204.9,74.6,208.2,71.1,210.2,66.8z"/>
</g>
<g id="_x23_e4b02dff">
	<path class="st2" d="M200.1,40.9c5.3,2.8,9.9,6.7,14.6,10.5c9.1,7.5,17.2,16.7,21.3,27.8c4.4,10.7,4.8,22.4,5.2,33.8
		c-0.1,2.1-0.4,4.2-0.7,6.3c-1.2-3.8-1.7-7.8-2.5-11.7C233,86,222.6,65.7,207.9,49.1C205.4,46.3,202.6,43.7,200.1,40.9z"/>
</g>
<g id="_x23_e4b02eff">
	<path class="st3" d="M43.1,46.2c1.8-1.3,3.7-2.3,5.6-3.3c-3.6,4-7.7,7.6-11,11.8C25,70.6,15.9,89.5,11.5,109.4
		c-0.9,4.6-1.6,9.2-2.5,13.7c-1.4-16.2-0.9-33.5,6.8-48.2C22,63,32.6,54.1,43.1,46.2z"/>
</g>
<g id="_x23_f0bf0eff">
	<path class="st4" d="M81.3,60.8c13.9-0.8,27.8-0.1,41.7-0.2c8.5,0.2,17.1,0.9,25.2,3.3c7.4,2.2,14,6.5,19.5,11.8
		c-5.5,5.4-10.7,11.2-16.5,16.2c-3.9-2.7-8.1-5.1-12.8-6.2c-11.5-2.5-23.3-2.4-34.9-1.3c0,2.4-0.1,4.7-0.2,7.1
		c-5-3.9-9.1-8.8-13.7-13.2c-2.6-2.7-5.6-5.1-7.9-8.1C80.8,67.3,81.5,64,81.3,60.8z"/>
	<path class="st4" d="M162.3,108.3c5.1-6.2,11.3-11.5,16.9-17.2c4.7,8.4,6.8,17.9,7.7,27.4c1.2,7.5,0.2,15-0.8,22.5
		c-2.2,14.1-8.8,27.8-19.9,37.1c-8.2,6.9-18.4,12-29.2,12.8c-0.4-7.6-0.5-15.2-0.1-22.7c2.2-2.8,6.6-2.7,9.5-4.8
		c14.1-8,20-25.6,18.5-41.1C164.7,117.5,162.8,113.1,162.3,108.3z"/>
	<path class="st4" d="M81.3,96.9c11.3,10.9,22.3,22.2,33.5,33.3c2.4,2.1,1.5,5.5,1.8,8.4c-4.1,0.1-8.3-0.2-12.4,0.1
		c-1.3,1-0.5,2.9-0.7,4.3c0.1,8.2,0,16.5-0.1,24.7c4.7,0.8,9.5,0.8,14.3,0.8c0,7.7,0,15.4,0,23.2c-12.1,0.3-24.3,1.6-36.4-0.1
		c-0.1-17.6,0.1-35.2-0.1-52.8c-4.3-0.1-8.6-0.1-12.9-0.1c0-8.1,0-16.2,0-24.3c4.3,0,8.6,0,12.9-0.1
		C81.3,108.4,81.2,102.7,81.3,96.9z"/>
</g>
<g id="_x23_e3b02dff">
	<path class="st5" d="M77.9,229c5.7,1.1,11.1,3.2,16.7,4.4c20.1,4.4,41.1,4.3,61.1,0c5.5-1.1,10.8-3.4,16.3-4.4
		c-12,7.2-25.2,13-39.1,15.1C113.5,246.8,94.5,238.6,77.9,229z"/>
</g>
<g id="_x23_eed187ff">
	<path class="st6" d="M110.1,246.8c3,0.9,6,2,8.9,3.2h-9.6l1.1-0.4c0.6-0.3,2-0.8,2.6-1C112.1,248,111.1,247.3,110.1,246.8z"/>
	<path class="st6" d="M131.1,250c2.9-1.3,5.8-2.4,8.9-3.2c-1,0.6-2,1.2-3,1.8c0.6,0.3,1.9,0.8,2.6,1l1.1,0.4H131.1z"/>
</g>
</svg>
